icons/circle/48/runescape.svg

<svg xmlns="http://www.w3.org/2000/svg" viewBox="0 0 48 48">
 <defs>
  <linearGradient id="linearGradient3764" x1="1" x2="47" gradientUnits="userSpaceOnUse" gradientTransform="matrix(0,-1,1,0,-1.5e-6,47.999998)">
   <stop style="stop-color:#284354;stop-opacity:1"/>
   <stop offset="1" style="stop-color:#2e4e62;stop-opacity:1"/>
  </linearGradient>
 </defs>
 <g>
  <path d="m 36.31 5 c 5.859 4.062 9.688 10.831 9.688 18.5 c 0 12.426 -10.07 22.5 -22.5 22.5 c -7.669 0 -14.438 -3.828 -18.5 -9.688 c 1.037 1.822 2.306 3.499 3.781 4.969 c 4.085 3.712 9.514 5.969 15.469 5.969 c 12.703 0 23 -10.298 23 -23 c 0 -5.954 -2.256 -11.384 -5.969 -15.469 c -1.469 -1.475 -3.147 -2.744 -4.969 -3.781 z m 4.969 3.781 c 3.854 4.113 6.219 9.637 6.219 15.719 c 0 12.703 -10.297 23 -23 23 c -6.081 0 -11.606 -2.364 -15.719 -6.219 c 4.16 4.144 9.883 6.719 16.219 6.719 c 12.703 0 23 -10.298 23 -23 c 0 -6.335 -2.575 -12.06 -6.719 -16.219 z" style="opacity:0.05"/>
  <path d="m 41.28 8.781 c 3.712 4.085 5.969 9.514 5.969 15.469 c 0 12.703 -10.297 23 -23 23 c -5.954 0 -11.384 -2.256 -15.469 -5.969 c 4.113 3.854 9.637 6.219 15.719 6.219 c 12.703 0 23 -10.298 23 -23 c 0 -6.081 -2.364 -11.606 -6.219 -15.719 z" style="opacity:0.1"/>
  <path d="m 31.25 2.375 c 8.615 3.154 14.75 11.417 14.75 21.13 c 0 12.426 -10.07 22.5 -22.5 22.5 c -9.708 0 -17.971 -6.135 -21.12 -14.75 a 23 23 0 0 0 44.875 -7 a 23 23 0 0 0 -16 -21.875 z" style="opacity:0.2"/>
 </g>
 <g>
  <path d="m 24 1 c 12.703 0 23 10.297 23 23 c 0 12.703 -10.297 23 -23 23 -12.703 0 -23 -10.297 -23 -23 0 -12.703 10.297 -23 23 -23 z" style="fill:url(#linearGradient3764);fill-opacity:1"/>
 </g>
 <g>
  <g>
   <g transform="translate(1,1)">
    <g style="opacity:0.1">
     <!-- color: #37b8d5 -->
    </g>
   </g>
  </g>
 </g>
 <g>
  <g>
   <!-- color: #37b8d5 -->
  </g>
 </g>
 <g>
  <path d="m 40.03 7.531 c 3.712 4.084 5.969 9.514 5.969 15.469 0 12.703 -10.297 23 -23 23 c -5.954 0 -11.384 -2.256 -15.469 -5.969 4.178 4.291 10.01 6.969 16.469 6.969 c 12.703 0 23 -10.298 23 -23 0 -6.462 -2.677 -12.291 -6.969 -16.469 z" style="opacity:0.1"/>
 </g>
 <path d="m 25 9 a 2 2 0 0 0 -2 2 2 2 0 0 0 1 1.73 L 24 18 19.6 18 18.5 19 19.6 20.1 20.699 19 c 0 0 2.303 0 2.303 1 l 0 0.004 -0.002 -0.004 0 6 -1 1 1 1 0 6 -1 2 3 5 3 -5 -1 -2 0 -8 0.002 -6 c 0 -1 2.301 -1 2.301 -1 l 1.1 1.1 L 31.502 19 l -1.1 -1 -4.402 0 0 -5.271 a 2 2 0 0 0 1 -1.729 2 2 0 0 0 -2 -2 z" style="fill:#000;opacity:0.1;fill-opacity:1;stroke:none;fill-rule:evenodd"/>
 <path d="m 23 18 2 0 0 -7 -2 0 z" style="fill:#694e3b;fill-opacity:1;stroke:none;fill-rule:evenodd"/>
 <path d="m 18.6 17 -1.1 1 1.1 1.1 1.1 -1.1 c 0 0 2.301 0 2.301 1 l 0 6 1.999 15 2 -15 0.001 -6 c 0 -1 2.301 -1 2.301 -1 l 1.1 1.1 1.1 -1.1 -1.1 -1" style="fill:#dfdfdf;opacity:1;fill-opacity:0.941;stroke:none;fill-rule:evenodd"/>
 <circle cx="24" cy="10" r="2" style="fill:#d3d4d5;fill-opacity:1;stroke:none;fill-rule:evenodd"/>
 <path d="m 22 19 2 4 0 17 -3 -5 1 -2 0 -6 -1 -1 1 -1 z" style="fill:#e2e3e4;fill-opacity:1;stroke:none;fill-rule:evenodd"/>
 <path d="m 24 23 2 -4 0 14 1 2 -3 5 z" style="fill:#bfc0c1;fill-opacity:1;stroke:none;fill-rule:evenodd"/>
</svg>

<svg xmlns="http://www.w3.org/2000/svg" viewBox="0 0 48 48">
  <defs>
    <linearGradient id="a" x1="1" x2="47" gradientUnits="userSpaceOnUse" gradientTransform="rotate(-90 24 24)">
      <stop stop-color="#284354"/>
      <stop offset="1" stop-color="#2e4e62"/>
    </linearGradient>
  </defs>
  <path d="M36.31 5c5.859 4.062 9.688 10.831 9.688 18.5 0 12.426-10.07 22.5-22.5 22.5-7.669 0-14.438-3.828-18.5-9.688a23.24 23.24 0 0 0 3.781 4.969 22.923 22.923 0 0 0 15.469 5.969c12.703 0 23-10.298 23-23a22.92 22.92 0 0 0-5.969-15.469A23.216 23.216 0 0 0 36.31 5zm4.969 3.781A22.911 22.911 0 0 1 47.498 24.5c0 12.703-10.297 23-23 23a22.909 22.909 0 0 1-15.719-6.219C12.939 45.425 18.662 48 24.998 48c12.703 0 23-10.298 23-23 0-6.335-2.575-12.06-6.719-16.219z" opacity=".05"/>
  <path d="M41.28 8.781a22.923 22.923 0 0 1 5.969 15.469c0 12.703-10.297 23-23 23A22.92 22.92 0 0 1 8.78 41.281 22.911 22.911 0 0 0 24.499 47.5c12.703 0 23-10.298 23-23A22.909 22.909 0 0 0 41.28 8.781z" opacity=".1"/>
  <path d="M31.25 2.375C39.865 5.529 46 13.792 46 23.505c0 12.426-10.07 22.5-22.5 22.5-9.708 0-17.971-6.135-21.12-14.75a23 23 0 0 0 44.875-7 23 23 0 0 0-16-21.875z" opacity=".2"/>
  <path d="M24 1c12.703 0 23 10.297 23 23S36.703 47 24 47 1 36.703 1 24 11.297 1 24 1z" fill="url(#a)"/>
  <path d="M40.03 7.531A22.922 22.922 0 0 1 45.999 23c0 12.703-10.297 23-23 23A22.92 22.92 0 0 1 7.53 40.031C11.708 44.322 17.54 47 23.999 47c12.703 0 23-10.298 23-23 0-6.462-2.677-12.291-6.969-16.469z" opacity=".1"/>
  <path d="M25 9a2 2 0 0 0-2 2 2 2 0 0 0 1 1.73V18h-4.4l-1.1 1 1.1 1.1 1.099-1.1s2.303 0 2.303 1v.004L23 20v6l-1 1 1 1v6l-1 2 3 5 3-5-1-2v-8l.002-6c0-1 2.301-1 2.301-1l1.1 1.1 1.099-1.1-1.1-1H26v-5.271A2 2 0 0 0 27 11a2 2 0 0 0-2-2z" opacity=".1" fill-rule="evenodd"/>
  <path d="M23 18h2v-7h-2z" fill="#694e3b" fill-rule="evenodd"/>
  <path d="M18.6 17l-1.1 1 1.1 1.1 1.1-1.1s2.301 0 2.301 1v6L24 40l2-15 .001-6c0-1 2.301-1 2.301-1l1.1 1.1 1.1-1.1-1.1-1" fill="#dfdfdf" fill-opacity=".941" fill-rule="evenodd"/>
  <circle cx="24" cy="10" r="2" fill="#d3d4d5" fill-rule="evenodd"/>
  <path d="M22 19l2 4v17l-3-5 1-2v-6l-1-1 1-1z" fill="#e2e3e4" fill-rule="evenodd"/>
  <path d="M24 23l2-4v14l1 2-3 5z" fill="#bfc0c1" fill-rule="evenodd"/>
</svg>
